X:1
T:Le Chant Des Oyseaux
T:Clement Janequin
T:Editor:  John Henry Fowler
T:         Le Chant Des Oyseaux
T:                            From "Chansons - 1529"
C:Clement Janequin
Z:Editor:  John Henry Fowler
%%score [ 1 2 3 4 ]
L:1/8
Q:1/4=100
M:4/4
K:Dmin
V:1 treble transpose=-2 nm="Soprano" snm="Soprano"
V:2 treble transpose=-2 nm="Alto" snm="Alto"
V:3 treble-8 nm="Tenor" snm="Tenor"
V:4 bass nm="Bass" snm="Bass"
V:1
[K:Emin]"^Revision:  2 - 16 - 2003""^First Part" z8 | z8 | z4"^(  C. 1472 - C. 1560  )" e2 ee | %3
w: ||Re- veil- lez|
 e2 e2 =f2 ed | c2 d2 e3 e | d2 c2 B4 | A4 c2 cc | c2 z2 z4 | z4 e2 ee | e2 e2 =f2 ed | %10
w: vous, cueurs en- dor- *|mis, _ _ vous|son- * *|ne, Re- veil- lez|vous,|Re- veil- lez|vius, cueurs en- dor- *|
 c2 d2 e3 e | d2 c2 B4 | A4 c4 | B2 A3 ^G/F/ G2 | A8 || z8 | z8 | z8 | z8 | c3 c B2 e2 | %20
w: mis, Le dieu d'a-|mours vous son-|||ne.|||||A ce pre- meir|
 e2 ^d2 e4 | z8 | c3 c B2 e2 | e2 ^d2 e4 | z2 B2 d3 d | c2 B2 A2 B2- | BA A4 ^G2 | A8 | z8 | z8 | %30
w: jour de may,||pour vous met- tre|hor d'e- smay|De- stou- pez|vos. o- reil- *||les.|||
 z2 B2 d3 c | BA B2 cdcB | AG/G/ Ac B3 e | d3 c B3 e | d3 c B3 e | d3 c BA B2 | cdcB AG/G/ Ac | %37
w: Et fa- ri-|ra- ri- ron, fa- ri- ra- ri-|ron, fe- re- ly io- ly, io-|ly, io- ly, io-|ly, io- ly, Et|fa- ri- ra- ri- ron,|fa- ri- ra- ri- ron, fe- re- ly io-|
 B2 z B BBBB | c2 BA G4 | z4 e2 ee | e2 e2 =f2 ed | c2 d2 e3 e | d2 c2 B4 | A4 c2 cc | c2 z2 z4 | %45
w: ly, Vous se- rez tous en|ioy- e _ mis,|Vous se- rez|tous en ioy- * e|mis, Car la sai-|son est bon-|ne Vous se- rez|tous|
 z4 e2 ee | e2 e2 =f2 ed | c2 d2 e3 e | d2 c2 B4 | A4 c4 | B2 A3 ^G/F/ G2 | A8 || %52
w: Vous se- rez|tous en ioy- e _|mis, Car la sai-|son est bon-|||ne.|
"^Second Part" z8 | z8 | z8 | z8 | c3 c B2 e2 | e2 ^d2 e4 | z8 | c3 c B2 e2 | e2 ^d2 e4 | %61
w: ||||Vous or- rez, a-|mon ad- vis,||Que fe- ra le|roy mau- vis|
 z2 B2 d3 d | c2 B2 A2 B2- | BA A4 ^G2 | A4 z2 =f2 | e3 d cde=f | g4 e2 z2 | e2 z2 e2 z2 | %68
w: D'u- ne voix|au- ten- ti- *||que Ty-|ty, ty, ty, ty, ty, py-|ty, chou,|chou, chou,|
 e2 z2 e2 de | fd e2 e2 de | fd e4 d2- | dd/d/ Bd/d/ B4 | z8 | z4 eeee | e2 z2 eeee | e2 g2- gfef | %76
w: chou, chou- ty, thou-|ty thou- y, thou- y, thou\--|y, chou- ty, Toi|_ que di tu que di tu||Le pi- tit mi-|gnon, Le pe- tit mi-|gnon, Sain- * cte te- ste|
 g2 z2 z2 e2- | edcd e2 g2- | gfef g2 ef | ggef dcef | g2 g2 dd e2 | eeec deee | eeee ee/e/ ee | %83
w: Dieu~! Sain-|* cte te- ste Dieu~! Sain-|* ste te- ste Dieu~! Il est|temps, temps, d'a- ler boi- re Il es|temps, temps, Au ser- mon,|ma mai- stresse. A Saint Tro- tin voir|Saint Ro- bin Le douix mu- se- quin, Le|
 ee/e/ e2 z4 | z4 e2 ee | e2 e2 =f2 ed | c2 d2 e3 e | d2 c2 B4 | A4 c2 cc | c2 z2 z4 | z4 e2 ee | %91
w: douix mu- se- quin,|Ri- re\_et gau-|dir c'es mon de- *|vis, Cha- cun s'i|ha- ban- don-|ne Ri- re\_et gau-|dir|Ri- re\_et gau-|
 e2 e2 =f2 ed | c2 d2 e3 e | d2 c2 B4 | A4 c4 | B2 A2- A^G/F/ G2 | A8 ||"^Third Part" z8 | z8 | %99
w: \-~dir c'es mon de _|vis, Cha- cun s'i|ha- ban- don-|||ne.|||
 z8 | z8 | c3 c B2 e2 | e2 ^d2 e4 | z8 | c3 c B2 e2 | e2 ^d2 e4 | z2 B2 d3 d | c2 B2 A2 B2- | %108
w: ||Pour vous met- tre|hors d'en- nuy||Pour vous met- tre|hors d'en- nuy|Vos- tre gor-|ge iar- gon- *|
 BA A4 ^G2 | A8 | gggg gggg | f8 | ffff ffff | ffff ffff | d4 z4 | d8 | z ddd dddd | d2 d4 z2 | %118
w: |ne:|Frian, frain, frain, frain, frain, frain, frain, frain,|teo|tu, tu, tu, tu, tu, tu, tu, tu,|co- qui, co- qui, co- qui, co- qui,|tu,|oy,|oy, ty, oy, ty, oy, ty, oy,|ty, trrr,|
 d8 | e4 e4 | e4 e4 | e4 e4 | gggg gggg | gggg gggg | ggfg fgfg | ffff ff f2 | z8 | z8 | %128
w: tu,|huit, huit,|huit, huit,|huit, huit,|teo, teo, teo, teo, teo, teo, teo, teo,|teo, frain, frain, frain, frain, frain, frain, frain,|frian, ty- cun, ty- cun, tur- ry, tur-|ry tur- ry, tur- ry, qui- by,|||
 eeee eeee | eeee eeee | ee e2 e4 | f2 f2 f2 f2 | ffff ffff | f2 d2- dddd | d2 d2- dddd | %135
w: tu, tu, tu, tu, tu, fou- quet, fou-|quet, fi, ti, fi, ti, fran, frian, frian,|frain, fi, ti, trrr,|huit, huit, huit, huit,|tar, tar, tar, tar, tar, tar, tar, tar,|tar, trrr, _ oy, ty, oy,|ty, trrr, _ tu- ri, tu-|
 d2 d2- dddd | d2 d2- dddd | d2 d2- dddd | d2 d2- dddd | d2 d6 | z8 | z4 e2 ee | e2 e2 =f2 ed | %143
w: ri, qrrr, _ tu- ri, tu-|\-~ri, qrrr, _ fi- ti, fi-|ti, frrr, _ fou- quet, fou-|quet, frrr, _ frian, frian, frian,|frian, frrr,||fui- ez, re-|gretz, pleurs et sou- *|
 c2 d2 e3 e | d2 c2 B4 | A4 c2 cc | c2 z2 z4 | z4 e2 ee | e2 e2 =f2 ed | c2 d2 e3 e | d2 c2 B4 | %151
w: ci, Car la sai-|son l'on- don-|\-~ne, fui- ez, re-|gretz,|fui- ez, re-|gretz, pleurs et sou- *|ci, Car- la sai-|son l'or- don-|
 A4 c4 | B2 A2- A^G/F/ G2 | A8 ||"^Fourth Part" z8 | z8 | z8 | z8 | c3 c B2 e2 | e2 ^d2 e4 | z8 | %161
w: ||ne.|||||A- rie- re mai-|stre cou- cou.||
 c3 c B2 e2 | e2 ^d2 e4 | z2 B2 d3 d | c2 B2 A2 B2- | BA A4 ^G2 | A4 z2 e2 | c4 z2 e2 | c4 z2 e2 | %169
w: Cha- cun vous donne|au bi- bou|car vous v'e-|stres q'un trai- *||stre, Cou-|cou, cou-|cou, cou-|
 c4 c2 A2 | z4 z2 e2 | c4 c2 A2 | z4 z2 e2 | c4 c2 A2 | z4 c2 G2 | c2 A2 z2 c2 | G4 c2 A2 | %177
w: cou, cou- cou,|cou-|cou, cou- cou,|cou-|cou, cou- cou,|cou- cou,|cou- cou, cou-|cou, cou- cou,|
 z2 c2 G4 | c2 A4 z A | G2 cc A3 A | G2 cc A3 A | G2 cc A2 z2 | e2 ee eeee | eeee dc e2- | %184
w: cou- cou,|cou- cou, cou-|\-~cou, cou, cou- cou, cou-|cou, cou, cou- cou, cou-|cou, cou, cou- cou,|Par tra- i- son, en cha- cun-|nid, Pon- dez sans quon vous son-|
 edcB c4 | B4 B2 BB | GGGG G4 | z8 | z4 z eee | eeee eeee | dc e2- edcB | c4 B4- | B2 AG F3 E | %193
w: |ne, Par tra- i-|son, en cha- cun nid,||Par * tra-|i- son, en cha- cun- nid, Pon- dez|sans quon vous son- * * *|||
 F8 | z8 | z4 e2 ee | e2 e2 =f2 ed | c2 d2 e3 e | d2 c2 B4 | A4 c2 cc | c2 z2 z4 | z4 e2 ee | %202
w: ne,||Re- veil- lez|vous, cuers en- dor- *|\-~mis, Le dieu d'a-|mours vous son-|ne, Re- veil- lez|vous,|Re- veil- lez|
 e2 e2 =f2 ed | c2 d2 e3 e | d2 c2 B4 | A4 c4 | B2 A2- A^G/F/ G2 | A8 |] %208
w: vous, cuers en- dor- *|mis, Le dieu d'a-|mours vous son-|||ne.|
V:2
[K:Emin] B2 BB B2 B2 | c2 BA ^G3 A/G/ | A2 B2 c2 BA | G4 z2 G2 | A2 B2 c3 c | B2 A4 G2 | A8 | %7
w: Re- veil- lez vous, cueurs|en- dor- * mis, _ _|_ _ en- dor- *|mis, Le|dieu, d'a- mours vous|son- * *|ne,|
 z4 B2 BB | A2 B2 c2 BA | G4 z2 G2 | A2 B2 c3 c | B2 A4 ^G2 | A4 G4 | =F4 E4 | E8 || z8 | z8 | %17
w: Re- veil- lez|vous, cour en- dor- *|mis, Le|dieu d'a- mours vous|son- * *|||ne.|||
 G3 G F2 B2 | B2 A2 B2 F2 | A3 A G2 G2 | F4 E4 | G3 G F2 B2 | B2 A2 B4 | z2 F2 A3 A | G2 G2 F4 | %25
w: A ce pre- mier|jour de may, Oy-|seaulx fe- rount mer-|veil- lez,|pour vous met- tre|hor d'e- smay|De- stou- pez|vos. o- reil-|
 EFGE F2 G2 | E4 z2 E2 | EEEE F4 | z8 | z4 z2 D2 | G3 G FE F2 | GAGF ED/D/ EG | FE EE/F/ GGFE | %33
w: |les. Et|fa- ri- ra- ri- ron,||Et|fa- ri- ra- ri- ron,|fa- ri- ra- ri- ron, fe- re- ly io-|ly, io- ly fe- re- ly io- ly, io-|
 B2 z2 E/E/E/E/ GA | B2 z2 E/E/E/E/ GA | B2 z2 E2 E2 | z2 z G EE/E/ EF | G8 | z4 B2 BB | %39
w: ly, fe- re- ly io- ly, io-|ly, fe- re- ly * io- ly,|io- io- ly,|io- ly, fe- re- ly io-|ly,|Vous se- rez|
 A2 B2 c2 BA | G4 z2 G2 | A2 B2 c3 c | B2 A4 G2 | A8 | z4 B2 BB | A2 B2 c2 BA | G4 z2 G2 | %47
w: tous en ioy- e _|mis, Car|la sai- son est|bon- * *|ne|Vous se- rez|tous en ioy- e _|mis, Car|
 A2 B2 c3 c | B2 A4 ^G2 | A4 G4 | =F4 E4 | E8 || z8 | z8 | G3 G F2 B2 | B2 A2 B2 F2 | A3 A G2 G2 | %57
w: la sai- son est|bon- * *|||ne.|||Vous or- rez, a-|* ad- vis, U-|ne dul- ce mu~\--|
 F4 E4 | G3 G F2 B2 | B2 A2 B4 | z2 F2 A3 A | G2 G2 F4 | EFGE F2 G2 | E4 z2 B2 | c3 c B2 A2 | %65
w: si- que,|Que fe- ra le|roy mau- vis|D'u- ne voix|au- ten- ti-||que Ty,|ty, py- ty, py-|
 G2 z G ABcA | B3 G ABcA | B3 G ABcA | B8 | z2 G2 GABc | B2 G2 GABc | B3 D ED G2- | %72
w: ty, chou- ty, thou- y, thou-|y, chou- ty, thou- y, thou-|y, chou- ty, thou- y, thou-|y,|chou- ty, thou- y, thou\--|y, chou- ty, thou- y, thou-|y, tu di tu di|
 GG/G/ GG/G/ A3 A/A/ | AAAA c3 c | cccc c2 cc | cccc BB c2 | z2 c2- cBAB | c2 c2 A2 G/A/B/c/ | %78
w: _ Le pe- tit san- son- net Le pe-|tit mi- gnon, pe- tit- te,|Le pe- tit mi- gnon, Quest la|bas, pas- se, pas- se, vil- lain~!|Sain- * cte te- ste|Dieu~! Quio, Quio, Le pe- tit mi-|
 B2 cc cc/c/ cc | cccc BcAc | B2 z B BBcc | BG cc/c/ BGcc | BB B2 BBBB | c2 BA G3 A/G/ | %84
w: gnon, Tost, tost, tost, au ser- mon, Le|pe- tit san- son- net din, dan, din,|dan, Sus ma dame * *|mes- se Sain- cte ca- quet- te Qui- ca|quet- te Ri- re\_et gau- dir c'es|mon de- * dis, _ _|
 A2 B2 c2 BA | G4 z2 G2 | A2 B2 c3 c | B2 A4 G2 | A8 | z4 B2 BB | A2 B2 c2 BA | G4 z2 G2 | %92
w: _ c'es mon de- *|vis, Cha|cun s'i ha- ban-|don- * \-|ne|Ri- re\_et gau-|dir c'es mon de- *|\-~vis, Cha|
 A2 B2 c3 c | B2 A4 ^G2 | A4 G4 | =F4 E4 | E8 || z8 | z8 | G3 G F2 B2 | B2 A2 B2 F2 | A3 A G2 G2 | %102
w: cun s'i ha- ban-|don- * *|||ne.|||Ros- si- gnol du-|boys io- ly, A|qui le voix re-|
 F4 E4 | G3 G F2 B2 | B2 A2 B4 | z2 F2 A3 A | G2 G2 F4 | EFGE F2 G2 | E8 | EEEE EEEE | %110
w: son- ne,|Pour vous met- tre|hors d'en- nuy|Vo- stre gor-|ge iar- gon-||ne:|Frian, frain, frain, frain, frain, frain, frain, frain,|
 EEEE E2 z B | ABAB A3 B | ABAB A2 z B/B/ | AB/B/ AB/B/ AA/A/ AA | B4 B4- | B4 B4- | B4 B4- | %117
w: frain, frain, frain, frain, frain, ti|\-~cun ti- cun, ti- cun, ti-|cun, ti- cun, ti- cun, qui- la-|ra, qui- la- ra, qui- la- ra, fe- re- ly, fy,|fy, tu,|_ tu,|_ tu,|
 B4 B4- | B4 z B/B/ GB/B/ | G8 | cccc cccc | cccc cccc | BBBB B2 z2 | z cBc BcBc | %124
w: _ tu,|_ qui- la- ra, qui- la-|ra,|te- o, te- o, te- o, te- o,|te- o, te- o, te- o, te- o,|te- o, te- o, tar,|oy, ty, oy, ty, oy, ty, *|
 B2 B2- BB/B/ AB/B/ | A4 z4 | G8 | G8 | GGGG GGGG | GGGG GGGG | G2 G4 A2- | AAAA ABAB | AAAA ABAB | %133
w: ty, trrr, _ qui- la- ra, qui- la-|ra,|tu,|tu,|tu, fou- quet, fou- quet, fi, ti, fi,|ti, frian, frian, frian, frian, tu- ri, tu-|\-~ri, tu, tu,|_ tu, tu, tu, tu, oy, ty, oy,|ty, tu- ri, tu- ri, ti- cun, ti-|
 AA/A/ BB B2 B2- | BBBB B2 B2- | BBBB B2 B2- | BBBB B2 B2- | BBBB B2 B2- | BBBB B2 B2- | %139
w: cun, fe- re- li, fi ti, trrr|_ oy, ty, oy, ty, trrr,|_ tu- ri, tu- ri, vrrr,|_ tu- ri, tu- ri, vrrr,|_ fou- quet, fou- quet, frrr,|_ frian, frian, frian, frian, frrr,|
 BBBB B2 B2 | c2 BA ^G3 A/G/ | A2 B2 c2 BA | G4 z2 G2 | A2 B2 c3 c | B2 A4 G2 | A8 | z4 B2 BB | %147
w: _ Fi- nez, re- grez, pleurs|et sou- * ci _ _|_ pleurs et sou- *|ci, Car|la sai- son l'on-|don- * *|ne,|Fi- nez, re-|
 A2 B2 c2 BA | G4 z2 G2 | A2 B2 c3 c | B2 A4 ^G2 | A4 G4 | =F4 E4 | E8 || z8 | z8 | G3 G F2 B2 | %157
w: gretz, pleurs et sou- *|ci, Car|la sai- son l'or-|don- * *|||ne.|||A- rie- re mai-|
 B2 A2 B2 F2 | A3 A G2 G2 | F4 E4 | G3 G F2 B2 | B2 A2 B4 | z2 F2 A3 A | G2 G2 F4 | EFGE F2 G2 | %165
w: \-~stre cou- cou. Sor-|tez de no cha-|pi- tre.|Cha- cun vous donne|au bi- bou,|car vous n'e-|stes q'un trai-||
 E4 z2 E2 | C4 c2 G2 | z4 c2 G2 | z4 c2 G2 | z2 A2 G3 =F | E4 c2 G2 | z2 A2 G3 =F | E4 c2 G2 | %173
w: stre. Cou-|cou, cou- cou,|cou- cou,|cou- cou,|cou- cou, cou-|* cou, cou,|cou- cou, cou-|cou, cou- cou,|
 z2 A2 G3 =F | EECE C4 | z2 A2 G3 E | EE C2 z2 A2 | G3 E EE C2 | z2 =F2 C2 z2 | EECE C4 | EECE C4 | %181
w: cou- cou, cou-|cou, cou- cou, cou- cou,|cou- cou, cou-|cou, cou- cou, cou-|cou, cou- cou, cou- cou,|cou- cou,|cou, cou- cou, cou- cou|cou, cou- cou, cou- cou,|
 EECE C2 z2 | GGEG G2 z2 | c2 cc BAGF | E2 A2 A2 A2 | G3 F G2 G2 | z2 E2 EEEE | EE E2 z4 | z8 | %189
w: cou, cou- cou, cou- cou,|cue, cou- cou, cou- cou,|Par tra- i- son, en cha- cun-|nid. Pon- dez sans|quon vous son- ne,|Par tra- i- son, en|cha- cun- nid,||
 B2 BB BBBB | BBBB AG B2- | BAGF G4 | F4 z4 | B2 BB B2 B2 | c2 BA G3 A/G/ | AGAB c2 BA | G4 z2 G2 | %197
w: Par tra- i- son, en cha- cun-|nid, Pon- dez sans quon vous son-||ne,|Re- veil- lez vous, cuers|en- dor- * mis, _ _|_ cuers _ _ en- dor- *|mis, Le|
 A2 B2 c3 c | B2 A4 G2 | A8 | z4 B2 BB | A2 B2 c2 BA | G4 z2 G2 | A2 B2 c3 c | B2 A4 ^G2 | A4 G4 | %206
w: dieu d'a- mours vous|son- \- *|ne,|Re- veil- lez|vous, cuers en- dor- *|mis, Le|dieu d'a- mours vous|son- * *||
 =F4 E4 | E8 |] %208
w: |ne.|
V:3
 z8 | d2 dd d2 d2 | _e2 dc B4 | z2 B2 c2 d2 | _e2 c2 Bcd=e | f2 g2 d3 f | _e4 d4 | d2 dd d2 d2 | %8
w: |Re- veil- lez vous, cueurs|en- dor- * mis,|Le dieu d'a|\-~mours vous son- * * *||* ne,|Re- veil- lez vous, cour|
 _e2 dc B4 | z2 B2 c2 d2 | _e2 c2 B2 f2- | fedc d4 | B2 c2 d3 d | c2 B2 A4 | G8 || z4 B3 B | %16
w: en- dor- * mis,|Le dieu d'a-|mours vous son- *||ne, Le dieu d'a-|mour vous son-|ne.|A ce|
 A2 d2 d2 ^c2 | d2 A2 c3 c | B2 B2 A4 | G4 z4 | z4 B3 B | A2 d2 d2 ^c2 | d2 d2 f2 f2 | e2 z2 B3 B | %24
w: pre- mier jour de|may, Oy- seauix fe-|ront mer- veil-|lez,|Pour vous|met- tre hor d'e-|smay De- stou- pez|vos. Pour vous|
 A2 d2 d2 c2 | d2 A2 c3 c | B2 B2 A4 | G2 G2 c3 B | AG A2 BcBA | GF/F/ GB A4 | z4 z2 A2 | %31
w: met- tre hor d'e-|\-~smay De stou- pez|vos o- reil-|les. Et fa- ri-|ra- ri- ron, fa- ri- ra- ri-|ron, fe- re- ly io- ly|Et|
 d3 c BA GF/F/ | GABG c z z2 | e/d/e/f/ ed f2 z2 | e/d/e/f/ ed f2 z2 | e/d/e/f/ ed f3 e | %36
w: fa- ri- ra- ri- ron, fe- re-|ly, io- ly, io- ly,|fe- re- ly io- ly, io- ly,|fe- re- ly io- ly, io- ly,|fe- re- ly io- ly, io- ly, fe-|
 dc dd/d/ BABG | d8 | d2 dd d2 d2 | _e2 dc B4 | z2 B2 c2 d2 | _e2 c2 Bcd=e | f2 g2 d3 f | _e4 d4 | %44
w: re- ly, io- ly, io- ly, io- ly, io-|ly,|Vous se- rez tous en|ioy- e _ mis,|Car la sai-|son est bon- * * *||* ne|
 d2 dd d2 d2 | _e2 dc B4 | z2 B2 c2 d2 | _e2 c2 B2 f2- | fedc d4 | B2 c2 d3 d | c2 B2 A4 | G8 || %52
w: Vous se- rez tous en|ioy- e _ mis,|Car la sai-|son est bon- *||ne Car la sai-|son est bon-|ne.|
 z4 B3 B | A2 d2 d2 ^c2 | d2 A2 c3 c | B2 B2 A4 | G4 z4 | z4 B3 B | A2 d2 d2 ^c2 | d2 d2 f2 f2 | %60
w: Vous or-|rez, a- mon ad-|vis, U- ne dul-|ce mu- si-|que,|Que fe-|ra le roy mau-|vis Le merle aus-|
 e2 z2 B3 B | A2 d2 d2 c2 | d2 A2 c3 c | B2 B2 A4 | G2 d2 c3 B | A4 z2 G2 | d3 d Bcde | %67
w: si stour- nel|se- ra par mi|D'u- ne voix au|ten- ti- que|Ty, ty, py- ty,|ty, ty,|ty, ty, ty, ty, py- ty,|
 f2 d2 Bcde | f8 | e2 de fd e2 | .e2 de fdee | f6 z c | dd/d/ Bd/d/ B4- | B4 z2 ff | ff f2 z2 f2- | %75
w: ty, ty, py, ty, py- ty,|ty,|chou- ty, thou- y, thou- y,|chou- ty, thou- y, thou- y, thou-|y, tu|di que di tu que di tu|_ Le pe-|tit mi- gnon, Sain-|
 fede fc g2 | d8 | z2 GA BG A2 | de f2 de f2 | z f2 f fddd | ddde f2 f2 | f2 d_e cBd=e | f2 f2 f4 | %83
w: * cte te- ste Dieu~! pe- ti-|re,|Le pe- tit mi- gnon,|Il est temps, Il est temps,|Guil- le- met- te, Co- li-|net- te, il est temps, temps,|temps, d'a- ler boi- re il est|temps, temps, temps,|
 d2 dd d2 d2 | _e2 dc B4 | z2 B2 c2 d2 | _e2 c2 Bcd=e | f2 g2 d3 f | _e4 d4 | d2 dd d2 d2 | %90
w: Ri- re\_et gau- di c'es|mon de- * vis,|Cha cun s'i|ha- ban- * \- * \-|* \- * \-|\- \-~~ne|Ri- re\_et gau- dir c'es|
 _e2 dc B4 | z2 B2 c2 d2 | _e2 c2 B2 f2- | f_edc d4 | B2 c2 d3 d | c2 B2 A4 | G8 || z4 B3 B | %98
w: mon de- * vis,|Cha cun s'i|ha- ban- don- *||\-~ne. Cha- cun s'i|ha- ban- don-|ne.|Ros- si-|
 A2 d2 d2 ^c2 | d2 A2 c3 c | B2 B2 (AG A2) | G4 z4 | z4 B3 B | A2 d2 d2 ^c2 | d2 d2 f2 f2 | %105
w: gnol du- boys io-|ly, A qui le|voix re- son * *|ne|Pour vous|met- tre hors d'en-|nuy Vo- stre gor-|
 e2 z2 B3 B | A2 d2 d2 c2 | d2 A2 c3 c | B2 B2 A4 | G2 BB BBBB | A3 A/A/ AA/A/ A2 | cccc cccc | %112
w: ge Pour vous|met- tre hors d'en-|nuy Vo- stre gor-|\-~ge iar- gon-|ne: Tar, tar, tar, tar, tar, tar,|tu ve- le- cy, ve- le- cy,|Frian, frain, frain, frain, frain, frain, frain, frain,|
 c2 c4 c2- | c2 c4 c2 | z fff ffff | ffff f3 f/f/ | ef/f/ ef/f/ e3 f/f/ | ef/f/ ef/f/ e2 fe | %118
w: tu, tu, tu,|_ tu, tu,|co- qui, co- qui, co- qui, co-|qui, fi, ti, fi, ti, qui- la-|ra, qui- la- ra, qui- la- ra, qui- la-|ra, qui- la- ra, qui- la- ra, ty- cun,|
 fefe f c2 A | B3 B B4 | z ggg gggg | g2 g4 z2 | d4 d4 | d4 d4 | z4 z2 z F | c2 c2 c2 cc/c/ | %126
w: ty- cun, ty- cun, ty, cun, ty,|cun, ty- cun.|oy, ty, oy, ty, oy, ty, oy,|ty, tu,|tu, tu,|tu, tu,|et|huit, huit, huit, huit, qui \-la-|
 A3 B ABAB | A2 z A AAAA | B2 z B B2 z2 | z2 B2 B2 B2 | B2 B2 BB/B/ GB/B/ | G2 c2- cccc | %132
w: \-~ra ti- cun, ti- cun, ti-|cun, co- qui, co- qui, co-|qui, co- qui.|huit, huit, huit,|huit, huit, huit, qui- la- ra, qui- la-|ra, fi, _ ti, fi, ti,|
 cccc cccc | cc/c/ A2 f3 f | ff f2 f3 f | ff f2 f3 f | ff f2 f3 f | ff f2 f3 f | ff f2 f3 f | %139
w: \-~ri, tu- ri, qui- bi, qui- bi, qui-|bi, qui- la- ra, frrr, tar,|tar, tar, tar, trrr, tu-|ri, tu- ri, qrrr, qui-|\-~bi, qui- bi, vrrr, fi-|ti, fi- ti, frrr, fou-|quet, fou- quet, frrr, frian,|
 ff f2 f3 c | d2 dd d2 d2 | _e2 dc B4 | z2 B2 c2 d2 | _e2 c2 Bcd=e | f2 g2 d3 f | _e4 d4 | %146
w: frian, frian, frian, frrr, et|fui- ez, re- gretz, pleurs|et sou- * ci,|Car la sai-|son l'on- don- * * *||* ne,|
 d2 dd d2 d2 | _e2 dc B4 | z2 B2 c2 d2 | _e2 c2 B2 f2- | fedc d4 | B2 c2 d3 d | c2 B2 A4 | G8 || %154
w: Fi- nez, re- gretz, pleurs|et sou- * ci,|Car la sai-|son l'or- don- \-|* \- * * \-|ne, Car- la sai-|son l'or- don-|ne.|
 z4 B3 B | A2 d2 d2 ^c2 | d2 A2 c3 c | B2 B2 A4 | G4 z4 | z4 B3 B | A2 d2 d2 ^c2 | d2 d2 f2 f2 | %162
w: A- rie-|re mai- stre cou-|cou, Sor- tez de|no cha- pi-|tre.|Cha- cun|vous donne au bi-|bou, car vous n'e-|
 e2 z2 B3 B | A2 d2 d2 c2 | d2 A2 c3 c | B2 B2 A4 | G2 d2 B4 | z2 _e2 B4 | z2 d2 B4 | z2 _e2 B4 | %170
w: estes. Cha- cun|vous donne su bi-|bou, car vous n'e-|stes q'un trai-|stre. Cou- cou,|cou- cou,|cou- cou,|cou- cou,|
 z2 d2 B4 | z2 _e2 B4 | z2 d2 B4 | z2 _e2 B4- | B4 z2 d2 | B4 d2 B2- | B2 d2 B4 | d2 B4 d2 | %178
w: cou- cou,|cou- cou|cou- cou|cou- cou|_ cou-|cou cou- cou,|_ cou- cou,|cou- cou, cou-|
 B2 z2 z BBG | BFGD z BBG | BFGD z BBG | BFGD z BBG | BFGD BBGB | G4 z4 | z8 | d2 dd dddd | d4 z4 | %187
w: cou, cou,- cou- cou,-|cou- cou,- cou- cou, cou- cou, cou-|cou, cou- cou, cou, cou, cou- cou,|cou- cou, cou- que, cou, cou- cou,|cou- cou, cou- cou, cou, cou- cou, cou-|cue.||Par tra- i- son, en cha- cun-||
 f2 ff ffff | ffff ed g2- | gf f2 f2 f2 | e2 d2 d2 dd | d2 d2 d2 d2 | ^c8- | c8 | d2 dd d2 d2 | %195
w: Par tra- i- son, en cha- cun-|nid, pon- dez sans quon vous son-|* ne, sans quon vous|son- ne, Re- veil- lez|vous, cours en- dor-|mis,|Re-|* veil- lez vous, cuers|
 _e2 dc B4 | z2 B2 c2 d2 | _e2 c2 Bcd=e | f2 g2 d3 f | _e4 d4 | d2 dd d2 d2 | _e2 dc B4 | %202
w: en- dor- * mis,|Le dieu d'a-|mours vous son- * * *||* ne,|Re- veil- lez vous, cuers|en- dor- * mis,|
 z2 B2 c2 d2 | _e2 c2 B2 f2- | fedc d4 | B2 c2 d3 d | c2 B2 A4 | G8 |] %208
w: Le dieu d'a-|mours vous son- *||ne, Le dieu d'a-|mours vous son-|ne.|
V:4
 z8 | z8 | z8 | z8 | z8 | z8 | G,2 G,G, G,2 G,2 | B,2 A,G, F,4 | z2 F,2 G,3 A, | B,4 z4 | %10
w: ||||||Re- veil- lez vous, cour|en- dor- * mis,|cueurs en- dor-|mis,|
 z4 z2 B,,2 | F,2 G,2 D,2 D,2 | _E,3 E, D,2 B,,2 | C,4 D,4 | G,8 || B,3 A, G,2 G,2 | %16
w: cueurs|en- dor- mis, le|dieu d'a- mours vous|son- *|ne.|A ce pre- mier|
 F,2 E,D, E,2 E,2 | D,4 z4 | z4 F,2 C2- | CB,B,C D4 | A,4 z4 | D,3 D, A,2 A,2 | B,2 B,2 F,3 D, | %23
w: jour _ _ _ de|may,|A ce|_ pre- mier jour de|may,|pour vous met- tre|hor d'e- smay De-|
 A,2 A,2 G,2 G,2 | D,4 A,4 | D,4 z2 F,2 | G,3 G, D,2 D,2 | G,4 C,4 | F,3 E, D,C,D,F, | %29
w: stou- pez vos o-|reil- *|les. De-|strou- pez vos o-|reil- les.|Fa- ri- ra- ri- ron, et|
 _E,D,C,B,, F,F,/F,/ F,F, | D,4 z4 | z8 | z D,G,G, F,D,/D,/ A,B, | A,2 z2 z D,A,B, | %34
w: fa- ri- ra- ri- ron, fe- re- ly io-|ly,||io- ly, io- ly, fe- re- ly io-|ly, io- ly, io-|
 A,2 z2 z D,A,B, | A,2 z2 z2 D,2 | G,A,/A,/ G,F, G,D,G,G, | D,8- | D,8 | z8 | z8 | z8 | z8 | %43
w: ly io- ly, io-|ly, io-|ly, fe- re- ly io- ly, io- ly, io-|ly,|_|||||
 G,2 G,G, G,2 G,2 | B,2 A,G, F,4 | z2 F,2 G,3 A, | B,4 z4 | z4 z2 B,,2 | F,2 G,2 D,2 D,2 | %49
w: Vous se- rez tous en|ioy- e _ mis,|en ioy- e|mis,|en|ioy- e mis, car|
 _E,3 E, D,2 B,,2 | C,4 D,4 | G,8 || B,3 A, G,2 G,2 | F,2 E,D, E,2 E,2 | D,4 z4 | z4 F,2 C2- | %56
w: la sai- son est|bon- *|ne.|Vous or- rez, a-|mon _ _ _ ad-|vis,|U- ne|
 CB,B,C D4 | A,4 z4 | D,3 D, A,2 A,2 | B,2 B,2 F,3 D, | A,2 A,2 G,2 G,2 | D,4 A,4 | D,4 z2 F,2 | %63
w: _ dul- ce mu- si-|que,|que fe- ra le|roy mau- vis d'u-|ne voix au- ten-|ti- *|que D'u-|
 G,3 G, D,2 D,2 | G,4 C,4 | D,4 z4 | D,D,D,D, G,2 G,2 | D,D,D,D, G,3 G,/G,/ | D,3 E, F,G, A,2- | %69
w: ne voix au- ten-|ti- *|que.|ty, thou- y, thou- y, chou-|ty, thou- y thou- y, que di|tu ty, ty, py- ty|
 A,A, B,2- B,B,/B,/ A,2- | A,A, B,2- B,B, A,A,/A,/ | F,4 z F,/F,/ D,F,/F,/ | D,3 D,/D,/ _E,2 E,E, | %73
w: _ tu ty, _ que di tu|_ du di _ tu di que di|tu que di tu que di|tu le pe- tit san- son-|
 _E,2 E,E, B,,4- | B,,8 | z8 | B,3 A, G,A, B,2 | G,G,G,G, G,G, D,2 | z2 B,2 B,B,B,B, | %79
w: net de pa- ris|_||Sain- cte te- ste Dieu~!|Quest la bas, pas- se, vil- lain~!|San- son- net de Pa-|
 B,B,B,B, F,G,G,G, | D,4 z2 B,C | DD/D/ B,G, A,B, G,G,/G,/ | D,D,/D,/ D,D,/D,/ D,3 D, | %83
w: ris, sai- ge cour- toys et bien a-|pris, Il est|temps, que di tu il est * * que di|tu san- son- net de Pa- ris Ri-|
 G,2 F,2 B,3 A, | G,2 F,2 G,4 | z8 | z8 | z8 | G,2 G,G, G,2 G,2 | B,2 A,G, F,4 | z2 F,2 G,3 A, | %91
w: \-~re\_et gau- dir c'es|mon de- vis,||||Ri- re\_et gau- dir c'es|mon de- * vis,|c'es mon de-|
 B,4 z4 | z4 z2 B,,2 | F,2 G,2 D,2 D,2 | _E,3 E, D,2 B,,2 | C,4 D,4 | G,8 || B,3 A, G,2 G,2 | %98
w: \-~vis,|c'es|mon de- vis, Cha-|cun s'i ha- ban-|don- *|ne.|Ros- si- gnol du-|
 (F,2 E,D, E,2) E,2 | D,4 z4 | z4 F,2 C2- | CB,B,C D4 | A,4 z4 | D,3 D, A,2 A,2 | B,2 B,2 F,3 D, | %105
w: * * * * io-|ly,|A qui|_ le voix re- son-|ne,|Pour vous met- tre|hors d'en- nuy Vo-|
 A,2 A,2 G,2 G,2 | D,4 A,4 | D,4 z2 F,2 | G,3 G, D,2 D,2 | G,8 | D,8 | z8 | z8 | z8 | F,8 | %115
w: stre gor- ge iar-|gon- *|ne: Vo-|\-~stre gor- ge iar-|gon-|ne:||||Teo,|
 F,F,F,F, F,F,F,F, | A,8 | z A,A,A, A,A,A,A, | A,A,/A,/ F,A,/A,/ F,4 | z8 | G,8 | G,8 | z8 | z8 | %124
w: frian, frian, frian, frian, tar, tar, tar, tar,|Tu,|tar, tu, quio, tar, quio, tar, quio,|tar, qui- la- ra, qui- la- ra,||Tu,|Tu,|||
 z8 | C,C,C,C, C,C,C,C, | D,D,D,D, D,D,D,D, | D,D,D,D, D,2 z2 | B,,8 | B,,8 | z8 | %131
w: |quio, quio, quio, quio, quio, quio, quio, quio,|tar, tar, tar, tar, tar, fou- quet, fou-|quet, qui- bi, qui- bi,|Tu,|Tu,||
 C,C,C,C, C,C,/C,/ C,C,/C,/ | C,2 C,2 C,2 C,2 | C,2 F,F, F,F, F,2 | F,3 F, F,F, F,2 | %135
w: quio, quio, quio, quio, quio, ve- le- cy, ve- le-|\-~cy, huit, huit, huit,|huit, tar, tar, tar, tar, tar,|trrr tu- ri, tu- ri,|
 F,3 F, F,F, F,2 | F,3 F, F,F, F,2 | F,3 F, F,F, F,2 | F,3 F, F,F,F,F, | F,F,F,F, F,F, F,A,/A,/ | %140
w: qrrr qui- bi, qui- bi,|Vrrr, fi- ti fi- ti|Frrr, fou- quet, fou- quet,|Frrr, frian, frian, frian, frian, co-|qui, co- qui, co- qui, qui- bi, qui- la-|
 G,G,/G,/ F,G,/G,/ D,2 z2 | z8 | z8 | z8 | z8 | G,2 G,G, G,2 G,2 | B,2 A,G, F,4 | z2 F,2 G,3 A, | %148
w: \-~ra, qui- la- ra, qui- la- ra,|||||fui- ez, re- grez, pleurs|et sou- * ci,|pleurs et sou-|
 B,4 z4 | z4 z2 B,,2 | F,2 G,2 D,2 D,2 | _E,3 E, D,2 B,,2 | C,4 D,4 | G,8 || B,3 A, G,2 G,2 | %155
w: ci,|pleurs|et sou- ci, Car-|la sai- son l'or-|don- *|ne.|A- rie- re mai-|
 (F,2 E,D, E,2) E,2 | D,4 z4 | z4 F,2 C2- | CB,B,C D4 | A,4 z4 | D,3 D, A,2 A,2 | B,2 B,2 F,3 D, | %162
w: * * * * cou-|cou,|Sor- tez|_ de no cha- pi-|tre.|Cha- cun vous donne|au bi- bou, car|
 A,2 A,2 G,2 G,2 | D,4 A,4 | D,4 z2 F,2 | G,3 G, D,2 D,2 | G,4 G,2 z2 | z8 | z8 | G,2 _E,2 z2 E,2 | %170
w: vous n'e- stes q'un|trai- *|stre. Car|vous n'e stres q'un|trai- stre.|||cou- qou, cou-|
 B,,4 z4 | G,2 _E,2 z2 E,2 | B,,4 z4 | G,2 _E,2 z2 E,2 | B,,4 z2 B,2 | G,G,_E,E, B,,4 | %176
w: qou,|cou- qou, cou-|qou,|cou- qou, cou-|qou, cou-|qou, cou- qou, cou- qou,|
 z2 B,2 G,G,_E,E, | B,,4 z2 B,2 | G,2 z2 _E,E,B,,E, | B,,4 _E,E,B,,E, | B,,4 _E,E,B,,E, | %181
w: cou- qou, cou- qou, cou-|qou, cou-|qou, cou- qou, cou- qou,|\-~cou, cou- cou- que, cou-|que, cou, cou- que,- cou-|
 B,,4 _E,E,B,,E, | B,,8 | z8 | z8 | z8 | B,2 B,B, B,B,B,B, | B,B,B,B, A,G, B,2- | B,A,G,F, G,4 | %189
w: qou, cou- cou- qou, cou-|qou,||||Par tra- i- son, en cha- cun-|nid, Pon- dez sans quon vous son-||
 D,3 C, D,E,F,G, | A,2 D,2 G,3 F, | G,4 D,4 | A,2 A,A, A,2 A,2 | A,2 A,2 A,3 A, | G,2 F,2 B,3 A, | %195
w: ||* ne,|Re- veil- lez vous, cours|en- dor- mis, cuers|en- dor- mis, re-|
 G,2 F,2 G,4 | z8 | z8 | z8 | G,2 G,G, G,2 G,2 | B,2 A,G, F,4 | z2 F,2 G,3 A, | B,4 z4 | %203
w: veil- lez vous.||||Re- veil- lez vous, cueurs|en- dor- * mis,|cueurs en- dor-|mis,|
 z4 z2 B,,2 | F,2 G,2 D,2 D,2 | _E,3 E, D,2 B,,2 | C,4 D,4 | G,8 |] %208
w: cueurs|en- dor- mis, Le|dieu d'a- mours vos|son- *|ne.|

